X:1
T:Il prim'assalto
T:Il prim'assalto
T:Simon de Baldis
T:Source : Primo libro delle villanelle a 3 voci---Venetia---Figlio d'A.Gardano---1574. Editor : André Vierendeels (27/03/16).
T:Notes : Original clefs : C1, C2, C4 Editorial accidentals above the staff "Alla napolitana" Music by composers  from Bari, collected by G.de Antiquis
T:©
T:©
T:©
C:Simon de Baldis
Z:©
%%score [ 1 2 3 ]
L:1/8
Q:1/4=82
M:4/4
K:C
V:1 treble nm="Soprano" snm="S"
V:2 treble nm="Alto" snm="A"
V:3 treble-8 nm="Tenor" snm="T"
V:1
 G4 E2 E2 | A2 A2 G4 | c4 B2 c2 | A4 G2 G2- | G2 A2 F2 E2 | D4 C4 ::[M:3/4] G2 G2 F2 | %7
w: 1)Il prim' as-|sal- to che|mi died' a-|mo- re, che|1) mi died' a-|mo- re,|fu di tan-|
w: 2)Non ni gio-|vo mo- strar-|li'ar- ma- to'il|co- re, li|2) ar- ma- to|co- re,|di sde- gno'e|
w: 3)Com' ei di|me fe- ce|pos- ses- *|so- re, fe-|3)- ce pos- ses-|so- re,|mi die tan-|
w: 4)Ma poi che|mi con- vien|es- ser pur|ser- vo, es|4)- ser pur ser-|* vo,|di si- gnor|
[M:4/4] G2 G4 F2 | G2 c2 B2 B2 | A2 A2 G4 | c4 B2 G2 | A4 G4 | z4 c4 | B2 B2 A2 A2 | G4 D4 | %15
w: to va- lo-|re, che col fe-|1)rir mi di|mor- tal fe-|ri- ta,|si|fe- ce tri- bu-|1)ta- ria,|
w: di fu- ro-|re, ch'ei con la|2)for- za sua|sol in- fi-|ni- ta,|si|fe- ce tri- bu-|2)ta- ria,|
w: to do- lo-|re, che sen- za|3)pur po- ter|chie- der l'a-|i- ta,|si|fe- ce tri- bu-|3)ra- ria,|
w: si pro- ter-|vo, mi for- za-|4)ro col mio|fi- del ser-|vi- re,|far-|li ve- nir pie-|4)- ta,|
 z2 c2 B2 B2 | A2 A2 G3 G | A2 B2 c4 | B2 G4 G2 | A4 F3 E | D2 C2 D4 |[M:2/4] C4 :| %22
w: si fe- ce|tri- bu- ta- ria|la mia vi-|1)ta, tri- bu-|ta- ri- a|la mia vi-|ta.|
w: si fe- ce|tri- bu- ta- ria|la mia vi-|2)ta, tri- bu-|ta- ri- a|la mia vi-|ta.|
w: si fe- ce|tri- bu- ta- ria|la mia vi-|3)ta, tri- bu-|ta- ri- a|la mia vi-|ta.|
w: far li ve-|nir pie- ta del|mio mar- ti-|4)re, pie- ta|del mio mar-|ti- * *|re.|
V:2
 E4 C2 C2 | F2 F2 E4 | A4 G2 G2- |"^#" G2 F2 G2 E2- | E2 F2 D2 C2- | C2 B,2 C4 ::[M:3/4] E2 E2 D2 | %7
w: 1)Il prim' as-|sal- to che|mi died' a-|* mo- re, che|1) mi died' a-|* mo- re,|fu di tan-|
w: 2)Non mi gio-|vo mo- strar-|li'ar- ma- to'il|_ co- re, li|2) ar- ma- to|_ co- re,|di sde- gno'e|
[M:4/4] E3 D C4 | D2 A2 G2 G2 | F2 F2 E4 | A4 G2 G2- |"^#" G2 F2 G4 | z2 G2 F2 E2 | E2 D2 F4 | %14
w: to va- lo-|re, che col fe-|1)rir mi di|mor- tal fe-|* ri- ta,|si fe- ce|tri- bu- ta-|
w: di fu- ro-|re, ch'ei con la|2)for- za sua|sol in- fi-|* ni- ta,|si fe- ce|tri- bu- ta-|
 E4 z2 G2 | F2 E2 E2 D2 | F4 E3 D | EF G4 F2 | G2 E4 E2 | F3 E D2 C2 | B,2 C4 B,2 |[M:2/4] C4 :| %22
w: 1)ria, si|fe- ce tri- bu-|ta- ria la|mi- a vi- *|1)ta, tri- bu-|ta- ri- a la|mia vi- *|ta.|
w: 2)ria, si|fe- ce tri- bu-|ta- ria la|mi- a vi- *|2)ta, tri- bu-|ta- ri- a la|mia vi- *|ta.|
V:3
 c4 A2 A2 | F2 F2 c4 | A4 e2 c2 |"^#" d4 G2 c2- | c2 F2 _B2 c2 | G4 C4 ::[M:3/4] c2 c2 B2 | %7
w: 3)Com' ei di|me fe- ce|pos- ses- *|so- re, fe-|3)- ce pos- ses-|so- re,|mi die tan-|
w: 4)Ma poi che|mi con- vien|es- ser pur|ser- vo, es-|4)ser pur ser- *|* vo,|di si- gnor|
[M:4/4] c3 B A4 | G2 F2 G2 G2 | d2 d2 c4 | F4 G2 G2 | d4 G2 c2 | B2 B2 A2 A2 | G4 F4 | %14
w: to do- lo-|re, che sen- za|3)pur po- ter|chie- der l'a-|i- ta, si|fe- ce tri- bu-|ta- ri|
w: si pro- ter-|vo, mi for- za-|4)ro col mio|fi- del ser-|vi- re, far-|li ve- nir pie-|* ta|
 z2 c2 B2 B2 | A2 A2 G4 | F4 c4- | c2 B2 A4 | G2 c4 c2 | F6 F2 | G2 A2 G4 |[M:2/4] C4 :| %22
w: 3)si fe- ce|tri- bu- ta-|ria la|_ mia vi-|3)ta, tri- bu-|ta- ria|la mia vi-|ta.|
w: 4)far- li ve-|nir pie- ta|del mio|_ mar- ti-|4)re, pie- ta|del mio|mar- ti- *|re.|

